X: 171376
T: Queen of the May
S: "Ceol Rince na hEireann" 1/197
Z: B.Black
L: 1/8
M: 4/4
R: reel
K: Edor
Bcdf ecdB|AD (3FED FAAc|Bcdf edBd|dBAd BE E2|
Bcdf ecdB|AD (3FED FAAc|Bcdf edBc|dBAd BE E2||
(3Bcd eg fdec|defg afed|(3Bcd eg fdec|dBAd BE E2|
(3Bcd eg fdec|defg afeg|(3fga ba fgfe|dBAF EFGA||
B2 eB fBeB|defg afed|B2 eB fBeB|dBAd BEE>A|
B2 eB fBeB|defg afeg|(3fga ba fgfe|dBAF E3z||
